client/src/assets/images/icon-weight-blue.svg

<svg viewBox="0 0 122.489 159.387" xmlns="http://www.w3.org/2000/svg"><g fill="#06b9ff"><path d="m31.026 150.9h-22.538v-21.23a1.823 1.823 0 0 1 3.647 0v17.582h18.891a1.823 1.823 0 1 1 0 3.647z"/><path d="m114 150.9h-22.136a1.823 1.823 0 1 1 0-3.647h18.488v-18.495a1.823 1.823 0 0 1 3.647 0z"/><path d="m112.175 69.342a1.824 1.824 0 0 1 -1.823-1.823v-18.486h-18.889a1.823 1.823 0 1 1 0-3.647h22.537v22.132a1.824 1.824 0 0 1 -1.825 1.824z"/><path d="m10.311 69.357a1.824 1.824 0 0 1 -1.823-1.823v-22.148h22.134a1.823 1.823 0 1 1 0 3.647h-18.488v18.5a1.824 1.824 0 0 1 -1.823 1.824z"/><path d="m61.244 159.387a61.244 61.244 0 1 1 61.244-61.244 61.314 61.314 0 0 1 -61.244 61.244zm0-118.842a57.6 57.6 0 1 0 57.6 57.6 57.663 57.663 0 0 0 -57.6-57.6z"/><path d="m61.244 145.24a47.1 47.1 0 1 1 47.1-47.1 47.151 47.151 0 0 1 -47.1 47.1zm0-90.547a43.45 43.45 0 1 0 43.45 43.45 43.5 43.5 0 0 0 -43.45-43.45z"/><path d="m58.021 88.538h22.009v3.646h-22.009z" transform="matrix(.70710678 -.70710678 .70710678 .70710678 -43.678 75.275)"/><path d="m59.421 52.87h3.647v11.318h-3.647z"/><path d="m39.613 58.176h3.646v11.319h-3.646z" transform="matrix(.8659905 -.50006046 .50006046 .8659905 -26.369 29.276)"/><path d="m25.114 72.677h3.646v11.317h-3.646z" transform="matrix(.50003023 -.86600795 .86600795 .50003023 -54.371 62.493)"/><path d="m15.971 96.319h11.318v3.647h-11.318z"/><path d="m21.279 116.127h11.317v3.646h-11.317z" transform="matrix(.8659905 -.50006046 .50006046 .8659905 -55.372 29.277)"/><path d="m35.777 130.626h11.319v3.646h-11.319z" transform="matrix(.50006046 -.8659905 .8659905 .50006046 -93.984 102.1)"/><path d="m59.421 132.097h3.647v11.319h-3.647z"/><path d="m79.228 126.79h3.646v11.317h-3.646z" transform="matrix(.86607776 -.49990931 .49990931 .86607776 -55.358 58.256)"/><path d="m93.727 112.291h3.646v11.319h-3.646z" transform="matrix(.49993954 -.86606031 .86606031 .49993954 -54.371 141.734)"/><path d="m95.2 96.319h11.318v3.647h-11.318z"/><path d="m89.891 76.512h11.319v3.646h-11.319z" transform="matrix(.8659905 -.50006046 .50006046 .8659905 -26.368 58.279)"/><path d="m75.392 62.012h11.317v3.646h-11.317z" transform="matrix(.50006046 -.8659905 .8659905 .50006046 -14.76 102.103)"/><path d="m60.917 33.734a10.194 10.194 0 0 1 -4.967-1.245c-2.932-1.643-4.547-4.637-4.547-8.43a1.823 1.823 0 0 1 3.647 0c0 2.45.928 4.265 2.683 5.248a7.14 7.14 0 0 0 6.923-.239 4.456 4.456 0 0 0 2.3-4.1c-.116-3.012-2.379-4.187-6.061-5.855-3.965-1.8-8.9-4.031-8.9-10.668a7.994 7.994 0 0 1 2.849-6.435 9.287 9.287 0 0 1 5.93-2.01c4.036 0 8.326 2.436 8.326 6.953a1.823 1.823 0 1 1 -3.647 0c0-2.147-2.41-3.306-4.68-3.306a5.646 5.646 0 0 0 -3.605 1.173 4.461 4.461 0 0 0 -1.529 3.629c0 4.078 2.566 5.449 6.757 7.346 3.559 1.613 7.989 3.621 8.2 9.037a8.086 8.086 0 0 1 -4.034 7.347 10.87 10.87 0 0 1 -5.645 1.555z"/><path d="m61.244 40.838a1.824 1.824 0 0 1 -1.823-1.823v-13.947a1.823 1.823 0 0 1 3.647 0v13.947a1.824 1.824 0 0 1 -1.824 1.823z"/></g></svg>

<svg xmlns="http://www.w3.org/2000/svg" viewBox="0 0 122.489 159.387"><defs><style>.a{fill:#06b9ff;}</style></defs><title>icon-weight-blue</title><path class="a" d="M31.026,150.9H8.488V129.67a1.823,1.823,0,0,1,3.647,0v17.582H31.026a1.823,1.823,0,1,1,0,3.647Z"/><path class="a" d="M114,150.9H91.864a1.823,1.823,0,1,1,0-3.647h18.488V128.758a1.823,1.823,0,0,1,3.647,0Z"/><path class="a" d="M112.175,69.342a1.824,1.824,0,0,1-1.823-1.823V49.033H91.463a1.823,1.823,0,1,1,0-3.647H114V67.518A1.824,1.824,0,0,1,112.175,69.342Z"/><path class="a" d="M10.311,69.357a1.824,1.824,0,0,1-1.823-1.823V45.386H30.622a1.823,1.823,0,1,1,0,3.647H12.134v18.5A1.824,1.824,0,0,1,10.311,69.357Z"/><path class="a" d="M61.244,159.387a61.244,61.244,0,1,1,61.244-61.244A61.314,61.314,0,0,1,61.244,159.387Zm0-118.842a57.6,57.6,0,1,0,57.6,57.6A57.663,57.663,0,0,0,61.244,40.545Z"/><path class="a" d="M61.244,145.24a47.1,47.1,0,1,1,47.1-47.1A47.151,47.151,0,0,1,61.244,145.24Zm0-90.547a43.45,43.45,0,1,0,43.45,43.45A43.5,43.5,0,0,0,61.244,54.693Z"/><rect class="a" x="58.021" y="88.538" width="22.009" height="3.646" transform="translate(-43.678 75.275) rotate(-45)"/><rect class="a" x="59.421" y="52.87" width="3.647" height="11.318"/><rect class="a" x="39.613" y="58.176" width="3.646" height="11.319" transform="translate(-26.369 29.276) rotate(-30.004)"/><rect class="a" x="25.114" y="72.677" width="3.646" height="11.317" transform="translate(-54.371 62.493) rotate(-59.998)"/><rect class="a" x="15.971" y="96.319" width="11.318" height="3.647"/><rect class="a" x="21.279" y="116.127" width="11.317" height="3.646" transform="translate(-55.372 29.277) rotate(-30.004)"/><rect class="a" x="35.777" y="130.626" width="11.319" height="3.646" transform="translate(-93.984 102.1) rotate(-59.996)"/><rect class="a" x="59.421" y="132.097" width="3.647" height="11.319"/><rect class="a" x="79.228" y="126.79" width="3.646" height="11.317" transform="translate(-55.358 58.256) rotate(-29.994)"/><rect class="a" x="93.727" y="112.291" width="3.646" height="11.319" transform="translate(-54.371 141.734) rotate(-60.004)"/><rect class="a" x="95.2" y="96.319" width="11.318" height="3.647"/><rect class="a" x="89.891" y="76.512" width="11.319" height="3.646" transform="translate(-26.368 58.279) rotate(-30.004)"/><rect class="a" x="75.392" y="62.012" width="11.317" height="3.646" transform="translate(-14.76 102.103) rotate(-59.996)"/><path class="a" d="M60.917,33.734a10.194,10.194,0,0,1-4.967-1.245c-2.932-1.643-4.547-4.637-4.547-8.43a1.823,1.823,0,0,1,3.647,0c0,2.45.928,4.265,2.683,5.248a7.14,7.14,0,0,0,6.923-.239,4.456,4.456,0,0,0,2.3-4.1c-.116-3.012-2.379-4.187-6.061-5.855-3.965-1.8-8.9-4.031-8.9-10.668A7.994,7.994,0,0,1,54.844,2.01,9.287,9.287,0,0,1,60.774,0C64.81,0,69.1,2.436,69.1,6.953a1.823,1.823,0,1,1-3.647,0c0-2.147-2.41-3.306-4.68-3.306A5.646,5.646,0,0,0,57.168,4.82a4.461,4.461,0,0,0-1.529,3.629c0,4.078,2.566,5.449,6.757,7.346,3.559,1.613,7.989,3.621,8.2,9.037a8.086,8.086,0,0,1-4.034,7.347A10.87,10.87,0,0,1,60.917,33.734Z"/><path class="a" d="M61.244,40.838a1.824,1.824,0,0,1-1.823-1.823V25.068a1.823,1.823,0,0,1,3.647,0V39.015A1.824,1.824,0,0,1,61.244,40.838Z"/></svg>
